;FLAVOR:Marlin
;TIME:38973
;Filament used: 37.0306m
;Layer height: 0.28
;MINX:3.626
;MINY:59.592
;MINZ:0.28
;MAXX:231.38
;MAXY:175.408
;MAXZ:71.12
;Generated with Cura_SteamEngine main
M140 S50
M105
M190 S50
M104 S200
M105
M109 S200
M82 ;absolute extrusion mode
; Ender 3 Custom Start G-code
G92 E0 ; Reset Extruder
G28 ; Home all axes
G1 Z2.0 F3000 ; Move Z Axis up little to prevent scratching of Heat Bed
G1 X0.1 Y20 Z0.3 F5000.0 ; Move to start position
G1 X0.1 Y200.0 Z0.3 F1500.0 E15 ; Draw the first line
G1 X0.4 Y200.0 Z0.3 F5000.0 ; Move to side a little
G1 X0.4 Y20 Z0.3 F1500.0 E30 ; Draw the second line
G92 E0 ; Reset Extruder
G1 Z2.0 F3000 ; Move Z Axis up little to prevent scratching of Heat Bed
G1 X5 Y20 Z0.3 F5000.0 ; Move over to prevent blob squish
G92 E0
G92 E0
G1 F2700 E-5
;LAYER_COUNT:254
;LAYER:0
M107
G0 F6000 X14.068 Y59.83 Z0.28
G0 X3.627 Y72.804
;TYPE:SKIRT
G1 F2700 E0
G1 F1200 X3.636 Y72.18 E0.02906
G1 X3.69 Y71.244 E0.07272
G1 X3.778 Y70.57 E0.10437
G1 X3.85 Y70.128 E0.12522
G1 X4.04 Y69.21 E0.16887
G1 X4.308 Y68.311 E0.21255
G1 X4.692 Y67.348 E0.26083
G1 X4.915 Y66.857 E0.28594
G1 X5.338 Y66.021 E0.32956
G1 X5.832 Y65.223 E0.37327
G1 X6.691 Y64.118 E0.43844
G1 X7.036 Y63.728 E0.46268
G1 X7.687 Y63.052 E0.50638
G1 X8.393 Y62.435 E0.55004
G1 X9.472 Y61.671 E0.61161
G1 X9.902 Y61.404 E0.63517
G1 X10.72 Y60.944 E0.67887
G1 X11.573 Y60.555 E0.72253
G1 X12.771 Y60.148 E0.78144
G1 X13.154 Y60.042 E0.79995
G1 X14.068 Y59.83 E0.84364
G1 X15.039 Y59.688 E0.88933
G1 X16.102 Y59.621 E0.93893
G1 X17.407 Y59.598 E0.9997
G1 X110.146 Y59.599 E5.31802
G1 X110.851 Y59.609 E5.35085
G1 X111.298 Y59.625 E5.37168
G1 X113.668 Y59.755 E5.4822
G1 X116.24 Y59.828 E5.60201
G1 X118.727 Y59.828 E5.71782
G1 X121.232 Y59.757 E5.83451
G1 X122.331 Y59.69 E5.88578
G1 X122.549 Y59.686 E5.89593
G1 X123.967 Y59.618 E5.96203
G1 X125.414 Y59.592 E6.02942
G1 X218.138 Y59.593 E10.34704
G1 X218.781 Y59.602 E10.37699
G1 X219.717 Y59.655 E10.42064
G1 X220.397 Y59.744 E10.45257
G1 X220.857 Y59.819 E10.47428
G1 X221.775 Y60.01 E10.51794
G1 X222.674 Y60.277 E10.5616
G1 X223.657 Y60.67 E10.6109
G1 X224.073 Y60.86 E10.6322
G1 X224.909 Y61.286 E10.67589
G1 X226.138 Y62.083 E10.74409
G1 X226.979 Y62.765 E10.79451
G1 X227.554 Y63.311 E10.83143
G1 X227.856 Y63.619 E10.85152
G1 X228.484 Y64.316 E10.89521
G1 X229.265 Y65.387 E10.95693
G1 X229.477 Y65.718 E10.97523
G1 X229.949 Y66.529 E11.01892
G1 X230.35 Y67.377 E11.0626
G1 X230.756 Y68.509 E11.1186
G1 X230.877 Y68.915 E11.13833
G1 X231.106 Y69.825 E11.18202
G1 X231.288 Y70.99 E11.23693
G1 X231.357 Y72.067 E11.28718
G1 X231.38 Y73.36 E11.3474
G1 X231.379 Y162.129 E15.48085
G1 X231.37 Y162.818 E15.51294
G1 X231.318 Y163.754 E15.55659
G1 X231.231 Y164.422 E15.58796
G1 X231.175 Y164.77 E15.60437
G1 X230.987 Y165.688 E15.648
G1 X230.678 Y166.711 E15.69776
G1 X230.542 Y167.093 E15.71665
G1 X230.19 Y167.963 E15.76035
G1 X229.535 Y169.188 E15.82503
G1 X229.318 Y169.539 E15.84425
G1 X228.792 Y170.315 E15.8879
G1 X228.201 Y171.044 E15.9316
G1 X227.361 Y171.894 E15.98724
G1 X227.009 Y172.214 E16.00939
G1 X226.289 Y172.815 E16.05307
G1 X225.52 Y173.352 E16.09674
G1 X224.677 Y173.839 E16.14207
G1 X224.307 Y174.031 E16.16148
G1 X223.456 Y174.427 E16.20519
G1 X222.342 Y174.821 E16.26021
G1 X222.012 Y174.918 E16.27623
G1 X221.102 Y175.143 E16.31988
G1 X219.923 Y175.322 E16.3754
G1 X218.899 Y175.385 E16.42318
G1 X217.612 Y175.408 E16.48311
G1 X124.854 Y175.407 E20.80231
G1 X124.149 Y175.397 E20.83515
G1 X123.688 Y175.381 E20.85662
G1 X121.14 Y175.238 E20.97546
G1 X118.665 Y175.167 E21.09075
G1 X116.141 Y175.165 E21.20828
G1 X113.621 Y175.235 E21.32567
G1 X112.601 Y175.293 E21.37324
G1 X112.443 Y175.295 E21.3806
G1 X111.036 Y175.363 E21.44619
G1 X109.601 Y175.389 E21.51302
G1 X16.869 Y175.388 E25.83101
G1 X16.204 Y175.379 E25.86198
G1 X15.268 Y175.326 E25.90563
G1 X14.548 Y175.231 E25.93945
G1 X14.055 Y175.149 E25.96272
G1 X13.137 Y174.956 E26.0064
G1 X12.239 Y174.685 E26.05008
G1 X10.95 Y174.141 E26.11522
G1 X10.527 Y173.93 E26.13724
G1 X9.706 Y173.476 E26.18092
G1 X8.927 Y172.954 E26.22459
G1 X8.134 Y172.313 E26.27207
G1 X7.822 Y172.036 E26.29149
G1 X7.148 Y171.384 E26.33516
G1 X6.493 Y170.629 E26.3817
G1 X6.335 Y170.429 E26.39357
G1 X5.786 Y169.669 E26.43723
G1 X5.301 Y168.86 E26.48115
G1 X5.093 Y168.477 E26.50144
G1 X4.68 Y167.634 E26.54515
G1 X4.205 Y166.327 E26.60991
G1 X4.116 Y166.024 E26.62461
G1 X3.89 Y165.114 E26.66827
G1 X3.714 Y163.965 E26.7224
G1 X3.649 Y162.915 E26.77138
G1 X3.626 Y161.608 E26.83225
G1 X3.627 Y72.804 E30.96734
G0 F6000 X4.027 Y72.81
G1 F1200 X4.036 Y72.186 E30.9964
G1 X4.089 Y71.267 E31.03926
G1 X4.173 Y70.635 E31.06895
G1 X4.245 Y70.193 E31.0898
G1 X4.432 Y69.291 E31.1327
G1 X4.697 Y68.41 E31.17553
G1 X5.056 Y67.514 E31.22048
G1 X5.279 Y67.023 E31.24559
G1 X5.696 Y66.202 E31.28847
G1 X6.182 Y65.42 E31.33134
G1 X6.991 Y64.383 E31.39258
G1 X7.336 Y63.993 E31.41683
G1 X7.975 Y63.33 E31.45971
G1 X8.669 Y62.726 E31.50255
G1 X9.683 Y62.011 E31.56032
G1 X10.113 Y61.744 E31.58389
G1 X10.916 Y61.293 E31.62677
G1 X11.754 Y60.913 E31.66962
G1 X12.878 Y60.533 E31.72487
G1 X13.261 Y60.427 E31.74337
G1 X14.158 Y60.22 E31.78624
G1 X15.084 Y60.086 E31.82981
G1 X16.11 Y60.021 E31.87768
G1 X17.407 Y59.998 E31.93808
G1 X110.14 Y59.999 E36.25612
G1 X110.845 Y60.009 E36.28895
G1 X111.277 Y60.024 E36.30908
G1 X113.674 Y60.156 E36.42086
G1 X116.229 Y60.228 E36.53988
G1 X118.738 Y60.228 E36.65671
G1 X121.267 Y60.156 E36.77452
G1 X122.355 Y60.09 E36.82527
G1 X123.975 Y60.018 E36.90078
G1 X125.414 Y59.992 E36.9678
G1 X218.132 Y59.993 E41.28513
G1 X218.775 Y60.002 E41.31508
G1 X219.694 Y60.055 E41.35794
G1 X220.333 Y60.139 E41.38795
G1 X220.793 Y60.214 E41.40965
G1 X221.694 Y60.402 E41.45251
G1 X222.576 Y60.667 E41.4954
G1 X223.491 Y61.034 E41.5413
G1 X223.907 Y61.224 E41.5626
G1 X224.727 Y61.643 E41.60548
G1 X225.899 Y62.405 E41.67057
G1 X226.727 Y63.076 E41.72019
G1 X227.269 Y63.591 E41.75501
G1 X227.571 Y63.899 E41.77509
G1 X228.186 Y64.583 E41.81793
G1 X228.928 Y65.603 E41.87666
G1 X229.14 Y65.934 E41.89496
G1 X229.603 Y66.73 E41.93784
G1 X229.994 Y67.563 E41.98069
G1 X230.372 Y68.623 E42.03309
G1 X230.493 Y69.029 E42.05282
G1 X230.718 Y69.922 E42.0957
G1 X230.892 Y71.034 E42.14811
G1 X230.957 Y72.075 E42.19668
G1 X230.98 Y73.36 E42.25652
G1 X230.979 Y162.123 E46.3897
G1 X230.97 Y162.812 E46.42178
G1 X230.918 Y163.732 E46.46469
G1 X230.836 Y164.358 E46.49409
G1 X230.78 Y164.706 E46.5105
G1 X230.595 Y165.608 E46.55338
G1 X230.301 Y166.577 E46.60053
G1 X230.165 Y166.959 E46.61941
G1 X229.819 Y167.812 E46.66227
G1 X229.195 Y168.978 E46.72385
G1 X228.978 Y169.329 E46.74307
G1 X228.46 Y170.09 E46.78593
G1 X227.879 Y170.804 E46.8288
G1 X227.092 Y171.598 E46.88085
G1 X226.74 Y171.918 E46.903
G1 X226.033 Y172.507 E46.94585
G1 X225.277 Y173.033 E46.98874
G1 X224.492 Y173.484 E47.03089
G1 X224.122 Y173.676 E47.0503
G1 X223.288 Y174.064 E47.09314
G1 X222.229 Y174.437 E47.14542
G1 X221.899 Y174.534 E47.16143
G1 X221.006 Y174.755 E47.20427
G1 X219.88 Y174.926 E47.2573
G1 X218.892 Y174.985 E47.30339
G1 X217.612 Y175.008 E47.363
G1 X124.86 Y175.007 E51.68192
G1 X124.155 Y174.997 E51.71475
G1 X123.71 Y174.981 E51.73549
G1 X121.21 Y174.841 E51.85208
G1 X118.641 Y174.767 E51.97175
G1 X116.13 Y174.765 E52.08868
G1 X113.586 Y174.836 E52.20718
G1 X112.578 Y174.893 E52.25419
G1 X112.422 Y174.895 E52.26146
G1 X111.028 Y174.963 E52.32645
G1 X109.601 Y174.989 E52.3929
G1 X16.875 Y174.988 E56.71061
G1 X16.21 Y174.979 E56.74158
G1 X15.29 Y174.927 E56.78449
G1 X14.614 Y174.836 E56.81625
G1 X14.121 Y174.754 E56.83952
G1 X13.22 Y174.564 E56.8824
G1 X12.339 Y174.296 E56.92528
G1 X11.129 Y173.783 E56.98648
G1 X10.706 Y173.572 E57.00849
G1 X9.9 Y173.126 E57.05138
G1 X9.137 Y172.612 E57.09422
G1 X8.399 Y172.014 E57.13845
G1 X8.087 Y171.737 E57.15788
G1 X7.426 Y171.096 E57.20075
G1 X6.807 Y170.381 E57.24479
G1 X6.649 Y170.181 E57.25666
G1 X6.111 Y169.434 E57.29952
G1 X5.652 Y168.669 E57.34106
G1 X5.444 Y168.286 E57.36136
G1 X5.04 Y167.458 E57.40426
G1 X4.589 Y166.214 E57.46587
G1 X4.5 Y165.911 E57.48058
G1 X4.279 Y165.018 E57.52341
G1 X4.111 Y163.922 E57.57504
G1 X4.049 Y162.907 E57.6224
G1 X4.026 Y161.608 E57.68289
G1 X4.027 Y72.81 E61.8177
G0 F6000 X4.427 Y72.816
G1 F1200 X4.436 Y72.192 E61.84676
G1 X4.489 Y71.29 E61.88883
G1 X4.568 Y70.699 E61.9166
G1 X4.64 Y70.257 E61.93745
G1 X4.824 Y69.373 E61.97949
G1 X5.086 Y68.509 E62.02153
G1 X5.42 Y67.679 E62.06319
G1 X5.643 Y67.188 E62.0883
G1 X6.052 Y66.383 E62.13035
G1 X6.532 Y65.618 E62.1724
G1 X7.29 Y64.648 E62.22972
G1 X7.635 Y64.258 E62.25397
G1 X8.263 Y63.608 E62.29606
G1 X8.946 Y63.017 E62.33811
G1 X9.894 Y62.351 E62.39206
G1 X10.324 Y62.084 E62.41563
G1 X11.112 Y61.642 E62.4577
G1 X11.936 Y61.271 E62.49978
G1 X12.984 Y60.919 E62.55126
G1 X13.367 Y60.813 E62.56976
G1 X14.247 Y60.61 E62.61181
G1 X15.128 Y60.484 E62.65325
G1 X16.117 Y60.421 E62.6994
G1 X17.407 Y60.398 E62.75948
G1 X110.135 Y60.399 E67.07728
G1 X110.84 Y60.409 E67.11011
G1 X111.255 Y60.423 E67.12945
G1 X113.678 Y60.556 E67.24244
G1 X116.218 Y60.628 E67.36076
G1 X118.75 Y60.628 E67.47866
G1 X121.273 Y60.557 E67.59619
G1 X122.38 Y60.489 E67.64783
G1 X122.577 Y60.486 E67.65701
G1 X123.982 Y60.418 E67.72251
G1 X125.414 Y60.392 E67.7892
G1 X218.127 Y60.393 E72.1063
G1 X218.77 Y60.402 E72.13625
G1 X219.671 Y60.455 E72.17827
G1 X220.268 Y60.534 E72.20632
G1 X220.728 Y60.609 E72.22802
G1 X221.612 Y60.794 E72.27007
G1 X222.477 Y61.056 E72.31216
G1 X223.325 Y61.398 E72.35473
G1 X223.741 Y61.588 E72.37603
G1 X224.545 Y61.999 E72.41808
G1 X225.664 Y62.728 E72.48026
G1 X226.474 Y63.387 E72.52889
G1 X226.983 Y63.871 E72.56159
G1 X227.285 Y64.179 E72.58168
G1 X227.888 Y64.851 E72.62372
G1 X228.591 Y65.819 E72.67943
G1 X228.803 Y66.15 E72.69773
G1 X229.256 Y66.931 E72.73977
G1 X229.638 Y67.749 E72.78181
G1 X229.989 Y68.738 E72.83067
G1 X230.11 Y69.144 E72.8504
G1 X230.329 Y70.02 E72.89245
G1 X230.494 Y71.077 E72.94226
G1 X230.557 Y72.083 E72.9892
G1 X230.58 Y73.36 E73.04867
G1 X230.579 Y162.118 E77.18161
G1 X230.57 Y162.807 E77.2137
G1 X230.518 Y163.709 E77.25577
G1 X230.441 Y164.295 E77.28329
G1 X230.385 Y164.643 E77.2997
G1 X230.203 Y165.527 E77.34173
G1 X229.924 Y166.443 E77.38632
G1 X229.788 Y166.825 E77.4052
G1 X229.448 Y167.662 E77.44726
G1 X228.855 Y168.768 E77.5057
G1 X228.638 Y169.119 E77.52492
G1 X228.129 Y169.865 E77.56697
G1 X227.557 Y170.564 E77.60902
G1 X226.823 Y171.302 E77.65749
G1 X226.471 Y171.622 E77.67964
G1 X225.777 Y172.2 E77.7217
G1 X225.034 Y172.713 E77.76374
G1 X224.308 Y173.129 E77.8027
G1 X223.938 Y173.321 E77.82211
G1 X223.119 Y173.701 E77.86415
G1 X222.116 Y174.053 E77.91365
G1 X221.786 Y174.15 E77.92967
G1 X220.91 Y174.366 E77.97168
G1 X219.839 Y174.528 E78.02212
G1 X218.884 Y174.585 E78.06666
G1 X217.612 Y174.608 E78.1259
G1 X124.865 Y174.607 E82.44459
G1 X124.16 Y174.597 E82.47742
G1 X123.733 Y174.582 E82.49732
G1 X121.208 Y174.44 E82.61508
G1 X118.653 Y174.367 E82.7341
G1 X116.119 Y174.365 E82.85209
G1 X113.589 Y174.436 E82.96995
G1 X112.556 Y174.494 E83.01812
G1 X111.02 Y174.563 E83.08972
G1 X109.601 Y174.589 E83.1558
G1 X16.88 Y174.588 E87.47328
G1 X16.215 Y174.579 E87.50425
G1 X15.313 Y174.527 E87.54632
G1 X14.679 Y174.442 E87.57611
G1 X14.186 Y174.36 E87.59938
G1 X13.303 Y174.172 E87.64142
G1 X12.44 Y173.907 E87.68345
G1 X11.307 Y173.425 E87.74079
G1 X10.884 Y173.214 E87.7628
G1 X10.095 Y172.776 E87.80482
G1 X9.347 Y172.269 E87.84689
G1 X8.665 Y171.715 E87.88781
G1 X8.353 Y171.438 E87.90724
G1 X7.705 Y170.809 E87.94929
G1 X7.121 Y170.133 E87.99088
G1 X6.963 Y169.933 E88.00275
G1 X6.435 Y169.2 E88.04482
G1 X6.004 Y168.478 E88.08397
G1 X5.796 Y168.095 E88.10426
G1 X5.4 Y167.283 E88.14633
G1 X4.972 Y166.102 E88.20482
G1 X4.883 Y165.799 E88.21953
G1 X4.668 Y164.922 E88.26158
G1 X4.509 Y163.881 E88.31061
G1 X4.449 Y162.899 E88.35642
G1 X4.426 Y161.608 E88.41655
G1 X4.427 Y72.816 E92.55107
G1 F2700 E87.55107
;MESH:Norns_Case_01_fix_b.stl
G0 F6000 X13.961 Y72.816
G0 X110.8 Y163.762
;TYPE:WALL-INNER
G1 F2700 E92.55107
G1 F1200 X111.22 Y163.595 E92.57212
G1 X111.444 Y163.421 E92.58533
G1 X111.606 Y163.198 E92.59816
G1 X111.73 Y162.94 E92.61149
G1 X111.782 Y162.649 E92.62526
G1 X111.782 Y72.445 E96.82553
G1 X111.756 Y72.18 E96.83793
G1 X111.588 Y71.759 E96.85904
G1 X111.284 Y71.434 E96.87976
G1 X111.093 Y71.32 E96.89012
G1 X110.641 Y71.198 E96.91192
G1 X16.475 Y71.198 E101.29668
G1 X16.207 Y71.224 E101.30922
G1 X15.926 Y71.308 E101.32287
G1 X15.646 Y71.488 E101.33837
G1 X15.426 Y71.737 E101.35385
G1 X15.279 Y72.045 E101.36974
G1 X15.226 Y72.338 E101.3836
G1 X15.226 Y162.542 E105.58388
G1 X15.252 Y162.808 E105.59632
G1 X15.453 Y163.31 E105.6215
G1 X15.766 Y163.589 E105.64103
G1 X16.069 Y163.734 E105.65667
G1 X16.367 Y163.789 E105.67078
G1 X110.533 Y163.789 E110.05554
G1 X110.8 Y163.762 E110.06804
G0 F6000 X110.878 Y164.157
;TYPE:WALL-OUTER
G1 F1200 X111.174 Y164.068 E110.08243
G1 X111.436 Y163.933 E110.09615
G1 X111.734 Y163.702 E110.11371
G1 X111.951 Y163.404 E110.13088
G1 X112.114 Y163.064 E110.14843
G1 X112.182 Y162.684 E110.16641
G1 X112.182 Y72.426 E114.3692
G1 X112.15 Y72.102 E114.38436
G1 X112.061 Y71.806 E114.39875
G1 X111.926 Y71.543 E114.41252
G1 X111.741 Y71.306 E114.42652
G1 X111.522 Y71.11 E114.4402
G1 X111.265 Y70.957 E114.45413
G1 X110.981 Y70.853 E114.46821
G1 X110.677 Y70.798 E114.4826
G1 X16.456 Y70.798 E118.86992
G1 X16.13 Y70.83 E118.88518
G1 X15.758 Y70.941 E118.90325
G1 X15.383 Y71.181 E118.92398
G1 X15.089 Y71.514 E118.94467
G1 X14.895 Y71.921 E118.96566
G1 X14.826 Y72.302 E118.98369
G1 X14.826 Y162.561 E123.18653
G1 X14.858 Y162.885 E123.20169
G1 X14.945 Y163.178 E123.21592
G1 X15.082 Y163.443 E123.22981
G1 X15.267 Y163.681 E123.24385
G1 X15.542 Y163.926 E123.261
G1 X15.947 Y164.119 E123.28189
G1 X16.331 Y164.189 E123.30007
G1 X110.552 Y164.189 E127.68739
G1 X110.878 Y164.157 E127.70264
G0 F6000 X110.666 Y163.429
;TYPE:SKIN
G1 F1200 X111.031 Y163.284 E127.72093
G1 X111.184 Y163.164 E127.72998
G1 X111.383 Y162.827 E127.74821
G1 X111.422 Y162.615 E127.75825
G1 X111.422 Y72.311 E131.96318
G1 X111.28 Y71.957 E131.98094
G1 X111.062 Y71.722 E131.99586
G1 X110.945 Y71.651 E132.00224
G1 X110.598 Y71.558 E132.01897
G1 X16.35 Y71.558 E136.40755
G1 X16.075 Y71.641 E136.42092
G1 X15.881 Y71.765 E136.43164
G1 X15.727 Y71.941 E136.44253
G1 X15.625 Y72.159 E136.45374
G1 X15.586 Y72.373 E136.46387
G1 X15.586 Y162.674 E140.66866
G1 X15.727 Y163.029 E140.68645
G1 X15.974 Y163.288 E140.70311
G1 X16.18 Y163.386 E140.71374
G1 X16.402 Y163.429 E140.72427
G1 X110.666 Y163.429 E145.11359
G1 F2700 E140.11359
G0 F6000 X110.69 Y163.674
G0 X111.327 Y163.307
G0 X111.575 Y162.891
G0 X111.621 Y162.634
G0 X111.598 Y72.211
G0 X111.53 Y71.866
G1 F2700 E145.11359
G0 F6000 X111.113 Y72.081
G1 F1200 X110.87 Y71.838 E145.12959
G0 F6000 X110.224 Y71.757
G1 F1200 X111.222 Y72.755 E145.19531
G0 F6000 X111.222 Y73.321
G1 F1200 X109.658 Y71.757 E145.29831
G0 F6000 X109.093 Y71.757
G1 F1200 X111.222 Y73.887 E145.43854
G0 F6000 X111.222 Y74.452
G1 F1200 X108.527 Y71.757 E145.61601
G0 F6000 X107.961 Y71.757
G1 F1200 X111.222 Y75.018 E145.83075
G0 F6000 X111.222 Y75.584
G1 F1200 X107.396 Y71.757 E146.08273
G0 F6000 X106.83 Y71.757
G1 F1200 X111.222 Y76.149 E146.37195
G0 F6000 X111.222 Y76.715
G1 F1200 X106.264 Y71.757 E146.69845
G0 F6000 X105.699 Y71.757
G1 F1200 X111.222 Y77.281 E147.06218
G0 F6000 X111.222 Y77.846
G1 F1200 X105.133 Y71.757 E147.46315
G0 F6000 X104.567 Y71.757
G1 F1200 X111.222 Y78.412 E147.90139
G0 F6000 X111.222 Y78.978
G1 F1200 X104.001 Y71.757 E148.37691
G0 F6000 X103.436 Y71.757
G1 F1200 X111.222 Y79.543 E148.88963
G0 F6000 X111.222 Y80.109
G1 F1200 X102.87 Y71.757 E149.43962
G0 F6000 X102.304 Y71.757
G1 F1200 X111.222 Y80.675 E150.02689
G0 F6000 X111.222 Y81.24
G1 F1200 X101.739 Y71.757 E150.65136
G0 F6000 X101.173 Y71.757
G1 F1200 X111.222 Y81.806 E151.3131
G0 F6000 X111.222 Y82.372
G1 F1200 X100.607 Y71.757 E152.01212
G0 F6000 X100.042 Y71.757
G1 F1200 X111.222 Y82.937 E152.74834
G0 F6000 X111.222 Y83.503
G1 F1200 X99.476 Y71.757 E153.52183
G0 F6000 X98.91 Y71.757
