;FLAVOR:Marlin
;TIME:11940
;Filament used: 5.63023m
;Layer height: 0.2
;MINX:73.765
;MINY:49.019
;MINZ:0.2
;MAXX:161.235
;MAXY:186.013
;MAXZ:86.2
;Generated with Cura_SteamEngine main
M140 S50
M105
M190 S50
M104 S200
M105
M109 S200
M82 ;absolute extrusion mode
; Ender 3 Custom Start G-code
G92 E0 ; Reset Extruder
G28 ; Home all axes
G1 Z2.0 F3000 ; Move Z Axis up little to prevent scratching of Heat Bed
G1 X0.1 Y20 Z0.3 F5000.0 ; Move to start position
G1 X0.1 Y200.0 Z0.3 F1500.0 E15 ; Draw the first line
G1 X0.4 Y200.0 Z0.3 F5000.0 ; Move to side a little
G1 X0.4 Y20 Z0.3 F1500.0 E30 ; Draw the second line
G92 E0 ; Reset Extruder
G1 Z2.0 F3000 ; Move Z Axis up little to prevent scratching of Heat Bed
G1 X5 Y20 Z0.3 F5000.0 ; Move over to prevent blob squish
G92 E0
G92 E0
G1 F2700 E-5
;LAYER_COUNT:431
;LAYER:0
M107
G0 F6000 X75.771 Y53.708 Z0.2
G0 X73.766 Y60.53
;TYPE:SKIRT
G1 F2700 E0
G1 F1200 X73.776 Y59.863 E0.02219
G1 X73.83 Y58.927 E0.05337
G1 X73.964 Y57.998 E0.08459
G1 X74.176 Y57.085 E0.11576
G1 X74.465 Y56.193 E0.14695
G1 X74.829 Y55.328 E0.17816
G1 X75.266 Y54.498 E0.20936
G1 X75.771 Y53.708 E0.24055
G1 X76.343 Y52.964 E0.27176
G1 X76.975 Y52.272 E0.30293
G1 X77.664 Y51.636 E0.33412
G1 X78.405 Y51.06 E0.36533
G1 X79.192 Y50.55 E0.39652
G1 X80.019 Y50.109 E0.4277
G1 X80.882 Y49.74 E0.45891
G1 X81.772 Y49.446 E0.49009
G1 X82.684 Y49.228 E0.52128
G1 X83.612 Y49.09 E0.55248
G1 X84.464 Y49.032 E0.58089
G1 X85.096 Y49.019 E0.60191
G1 X89.262 Y49.021 E0.74047
G1 X89.943 Y49.032 E0.76312
G1 X90.879 Y49.088 E0.79431
G1 X91.807 Y49.222 E0.8255
G1 X92.686 Y49.426 E0.85551
G1 X93.781 Y49.728 E0.89329
G1 X96.305 Y50.384 E0.98003
G1 X98.818 Y50.963 E1.0658
G1 X101.215 Y51.443 E1.14711
G1 X103.717 Y51.872 E1.23154
G1 X106.225 Y52.229 E1.3158
G1 X108.705 Y52.512 E1.39882
G1 X111.22 Y52.726 E1.48277
G1 X113.702 Y52.867 E1.56545
G1 X116.259 Y52.939 E1.65053
G1 X118.747 Y52.939 E1.73328
G1 X121.279 Y52.867 E1.81753
G1 X123.819 Y52.724 E1.90215
G1 X126.279 Y52.515 E1.98426
G1 X128.798 Y52.229 E2.06858
G1 X131.297 Y51.874 E2.15253
G1 X133.796 Y51.445 E2.23687
G1 X136.245 Y50.954 E2.31994
G1 X138.662 Y50.4 E2.40242
G1 X141.173 Y49.746 E2.48872
G1 X142.26 Y49.44 E2.52628
G1 X143.172 Y49.225 E2.55744
G1 X144.1 Y49.088 E2.58864
G1 X144.9 Y49.034 E2.61531
G1 X145.566 Y49.019 E2.63747
G1 X149.718 Y49.021 E2.77556
G1 X150.39 Y49.031 E2.79792
G1 X151.326 Y49.085 E2.8291
G1 X152.254 Y49.219 E2.86029
G1 X153.168 Y49.431 E2.89149
G1 X154.06 Y49.72 E2.92268
G1 X154.924 Y50.084 E2.95386
G1 X155.755 Y50.52 E2.98507
G1 X156.545 Y51.026 E3.01628
G1 X157.289 Y51.597 E3.04747
G1 X157.981 Y52.229 E3.07864
G1 X158.618 Y52.918 E3.10985
G1 X159.193 Y53.659 E3.14105
G1 X159.703 Y54.446 E3.17224
G1 X160.144 Y55.273 E3.20341
G1 X160.513 Y56.135 E3.2346
G1 X160.808 Y57.026 E3.26581
G1 X161.025 Y57.938 E3.29699
G1 X161.164 Y58.866 E3.3282
G1 X161.222 Y59.721 E3.35671
G1 X161.235 Y60.35 E3.37763
G1 X161.234 Y174.413 E7.17138
G1 X161.225 Y175.14 E7.19556
G1 X161.174 Y176.077 E7.22678
G1 X161.042 Y177.005 E7.25795
G1 X160.833 Y177.919 E7.28914
G1 X160.546 Y178.812 E7.32033
G1 X160.184 Y179.678 E7.35155
G1 X159.75 Y180.509 E7.38273
G1 X159.246 Y181.3 E7.41393
G1 X158.677 Y182.045 E7.44511
G1 X158.046 Y182.74 E7.47633
G1 X157.359 Y183.378 E7.50751
G1 X156.62 Y183.955 E7.5387
G1 X155.834 Y184.467 E7.5699
G1 X155.008 Y184.91 E7.60107
G1 X154.146 Y185.282 E7.6323
G1 X153.257 Y185.578 E7.66346
G1 X152.345 Y185.798 E7.69466
G1 X151.418 Y185.939 E7.72585
G1 X150.534 Y186 E7.75532
G1 X149.905 Y186.013 E7.77625
G1 X145.787 Y186.012 E7.91321
G1 X144.295 Y185.991 E7.96284
G1 X142.895 Y185.981 E8.00941
G1 X92.054 Y185.981 E9.70039
G1 X89.452 Y186.013 E9.78694
G1 X85.33 Y186.012 E9.92403
G1 X84.632 Y186.003 E9.94725
G1 X83.696 Y185.951 E9.97843
G1 X82.767 Y185.819 E10.00964
G1 X81.853 Y185.609 E10.04083
G1 X80.96 Y185.322 E10.07203
G1 X80.095 Y184.959 E10.10323
G1 X79.264 Y184.525 E10.13441
G1 X78.473 Y184.021 E10.16561
G1 X77.728 Y183.451 E10.19681
G1 X77.034 Y182.82 E10.228
G1 X76.397 Y182.133 E10.25916
G1 X75.82 Y181.393 E10.29037
G1 X75.308 Y180.607 E10.32157
G1 X74.865 Y179.78 E10.35278
G1 X74.494 Y178.919 E10.38396
G1 X74.198 Y178.029 E10.41516
G1 X73.979 Y177.117 E10.44635
G1 X73.838 Y176.19 E10.47754
G1 X73.778 Y175.301 E10.50717
G1 X73.765 Y174.671 E10.52813
G1 X73.766 Y60.53 E14.32448
G0 F6000 X74.166 Y60.536
G1 F1200 X74.176 Y59.869 E14.34666
G1 X74.23 Y58.95 E14.37728
G1 X74.363 Y58.039 E14.4079
G1 X74.575 Y57.143 E14.43853
G1 X74.864 Y56.269 E14.46915
G1 X75.227 Y55.423 E14.49976
G1 X75.663 Y54.612 E14.53039
G1 X76.167 Y53.842 E14.561
G1 X76.737 Y53.118 E14.59165
G1 X77.367 Y52.447 E14.62226
G1 X78.052 Y51.833 E14.65285
G1 X78.789 Y51.28 E14.6835
G1 X79.57 Y50.794 E14.7141
G1 X80.391 Y50.377 E14.74472
G1 X81.245 Y50.033 E14.77534
G1 X82.126 Y49.764 E14.80598
G1 X83.027 Y49.573 E14.83662
G1 X83.94 Y49.461 E14.86721
G1 X84.475 Y49.432 E14.88503
G1 X85.096 Y49.419 E14.90569
G1 X89.255 Y49.421 E15.04402
G1 X89.936 Y49.432 E15.06667
G1 X90.855 Y49.487 E15.09729
G1 X91.766 Y49.622 E15.12792
G1 X92.579 Y49.811 E15.15568
G1 X93.686 Y50.116 E15.19388
G1 X96.228 Y50.777 E15.28123
G1 X98.721 Y51.351 E15.36632
G1 X101.134 Y51.835 E15.44818
G1 X103.665 Y52.269 E15.53359
G1 X106.16 Y52.624 E15.61741
G1 X108.662 Y52.909 E15.70116
G1 X111.2 Y53.125 E15.78588
G1 X113.702 Y53.267 E15.86923
G1 X116.248 Y53.339 E15.95395
G1 X118.758 Y53.339 E16.03743
G1 X121.314 Y53.267 E16.12248
G1 X123.806 Y53.126 E16.20549
G1 X126.357 Y52.909 E16.29064
G1 X128.828 Y52.629 E16.37336
G1 X131.383 Y52.266 E16.45919
G1 X133.842 Y51.844 E16.54217
G1 X136.308 Y51.349 E16.62583
G1 X138.78 Y50.782 E16.71018
G1 X141.272 Y50.133 E16.79583
G1 X142.368 Y49.825 E16.8337
G1 X143.264 Y49.615 E16.8643
G1 X144.175 Y49.483 E16.89492
G1 X144.912 Y49.434 E16.91949
G1 X145.566 Y49.419 E16.94125
G1 X149.712 Y49.421 E17.07914
G1 X150.384 Y49.431 E17.1015
G1 X151.303 Y49.485 E17.13211
G1 X152.214 Y49.618 E17.16274
G1 X153.11 Y49.83 E17.19336
G1 X153.984 Y50.119 E17.22398
G1 X154.83 Y50.482 E17.2546
G1 X155.641 Y50.917 E17.2852
G1 X156.411 Y51.422 E17.31583
G1 X157.135 Y51.991 E17.34646
G1 X157.806 Y52.621 E17.37707
G1 X158.421 Y53.306 E17.40769
G1 X158.973 Y54.043 E17.43832
G1 X159.46 Y54.824 E17.46893
G1 X159.877 Y55.645 E17.49956
G1 X160.221 Y56.499 E17.53018
G1 X160.489 Y57.38 E17.56081
G1 X160.681 Y58.28 E17.59141
G1 X160.793 Y59.194 E17.62204
G1 X160.822 Y59.732 E17.63996
G1 X160.835 Y60.35 E17.66052
G1 X160.834 Y174.408 E21.4541
G1 X160.825 Y175.135 E21.47829
G1 X160.774 Y176.054 E21.5089
G1 X160.643 Y176.966 E21.53954
G1 X160.433 Y177.862 E21.57015
G1 X160.147 Y178.737 E21.60077
G1 X159.786 Y179.584 E21.63139
G1 X159.352 Y180.396 E21.66202
G1 X158.85 Y181.168 E21.69264
G1 X158.282 Y181.893 E21.72328
G1 X157.654 Y182.566 E21.75389
G1 X156.97 Y183.182 E21.78451
G1 X156.235 Y183.736 E21.81512
G1 X155.455 Y184.225 E21.84574
G1 X154.635 Y184.644 E21.87637
G1 X153.782 Y184.99 E21.90698
G1 X152.902 Y185.261 E21.93761
G1 X152.002 Y185.454 E21.96822
G1 X151.088 Y185.569 E21.99886
G1 X150.523 Y185.6 E22.01768
G1 X149.905 Y185.613 E22.03824
G1 X145.793 Y185.612 E22.17501
G1 X144.304 Y185.591 E22.22454
G1 X142.898 Y185.581 E22.2713
G1 X92.049 Y185.581 E23.96255
G1 X89.452 Y185.613 E24.04893
G1 X85.335 Y185.612 E24.18586
G1 X84.637 Y185.603 E24.20908
G1 X83.718 Y185.551 E24.2397
G1 X82.807 Y185.42 E24.27031
G1 X81.911 Y185.21 E24.30092
G1 X81.036 Y184.923 E24.33154
G1 X80.189 Y184.561 E24.36218
G1 X79.377 Y184.127 E24.3928
G1 X78.606 Y183.625 E24.4234
G1 X77.881 Y183.057 E24.45404
G1 X77.208 Y182.428 E24.48467
G1 X76.593 Y181.744 E24.51527
G1 X76.039 Y181.009 E24.54588
G1 X75.551 Y180.228 E24.57651
G1 X75.132 Y179.408 E24.60714
G1 X74.786 Y178.555 E24.63775
G1 X74.516 Y177.675 E24.66837
G1 X74.323 Y176.774 E24.69902
G1 X74.209 Y175.861 E24.72962
G1 X74.178 Y175.29 E24.74864
G1 X74.165 Y174.671 E24.76923
G1 X74.166 Y60.536 E28.56538
G0 F6000 X74.566 Y60.542
G1 F1200 X74.576 Y59.875 E28.58756
G1 X74.63 Y58.974 E28.61758
G1 X74.763 Y58.08 E28.64765
G1 X74.974 Y57.202 E28.67768
G1 X75.263 Y56.347 E28.7077
G1 X75.625 Y55.52 E28.73772
G1 X76.06 Y54.728 E28.76778
G1 X76.563 Y53.978 E28.79781
G1 X77.13 Y53.275 E28.82785
G1 X77.758 Y52.625 E28.85791
G1 X78.44 Y52.034 E28.88793
G1 X79.172 Y51.505 E28.91797
G1 X79.948 Y51.043 E28.94801
G1 X80.762 Y50.651 E28.97806
G1 X81.607 Y50.333 E29.00808
G1 X82.477 Y50.09 E29.03813
G1 X83.365 Y49.926 E29.06816
G1 X84.486 Y49.832 E29.10558
G1 X85.096 Y49.819 E29.12587
G1 X89.249 Y49.821 E29.264
G1 X89.93 Y49.832 E29.28665
G1 X90.831 Y49.887 E29.31668
G1 X91.724 Y50.021 E29.34671
G1 X92.473 Y50.197 E29.3723
G1 X93.626 Y50.515 E29.41208
G1 X96.109 Y51.161 E29.49742
G1 X98.617 Y51.738 E29.58301
G1 X101.101 Y52.236 E29.66727
G1 X103.577 Y52.66 E29.75083
G1 X106.09 Y53.018 E29.83525
G1 X108.654 Y53.31 E29.92108
G1 X111.142 Y53.522 E30.00413
G1 X113.704 Y53.667 E30.08948
G1 X116.237 Y53.739 E30.17376
G1 X118.77 Y53.739 E30.25801
G1 X121.31 Y53.667 E30.34253
G1 X123.863 Y53.523 E30.42757
G1 X126.364 Y53.31 E30.51106
G1 X128.892 Y53.023 E30.59568
G1 X131.441 Y52.661 E30.68131
G1 X133.911 Y52.238 E30.76466
G1 X136.404 Y51.738 E30.84923
G1 X138.873 Y51.172 E30.93348
G1 X141.372 Y50.521 E31.01937
G1 X142.476 Y50.21 E31.05752
G1 X143.356 Y50.004 E31.08758
G1 X144.25 Y49.877 E31.11761
G1 X144.924 Y49.834 E31.14007
G1 X145.566 Y49.819 E31.16143
G1 X149.706 Y49.821 E31.29913
G1 X150.378 Y49.831 E31.32148
G1 X151.279 Y49.885 E31.3515
G1 X152.173 Y50.017 E31.38156
G1 X153.051 Y50.229 E31.4116
G1 X153.906 Y50.517 E31.44161
G1 X154.733 Y50.88 E31.47165
G1 X155.525 Y51.315 E31.5017
G1 X156.275 Y51.817 E31.53172
G1 X156.978 Y52.385 E31.56178
G1 X157.628 Y53.012 E31.59182
G1 X158.22 Y53.694 E31.62186
G1 X158.749 Y54.426 E31.65189
G1 X159.211 Y55.202 E31.68193
G1 X159.603 Y56.015 E31.71195
G1 X159.921 Y56.861 E31.74201
G1 X160.163 Y57.731 E31.77205
G1 X160.328 Y58.619 E31.80209
G1 X160.422 Y59.743 E31.8396
G1 X160.435 Y60.35 E31.8598
G1 X160.434 Y174.403 E35.65321
G1 X160.425 Y175.13 E35.6774
G1 X160.374 Y176.032 E35.70744
G1 X160.243 Y176.926 E35.7375
G1 X160.034 Y177.804 E35.76751
G1 X159.748 Y178.661 E35.79756
G1 X159.387 Y179.489 E35.82761
G1 X158.955 Y180.281 E35.85761
G1 X158.454 Y181.033 E35.88767
G1 X157.888 Y181.737 E35.91771
G1 X157.263 Y182.388 E35.94773
G1 X156.582 Y182.982 E35.97778
G1 X155.851 Y183.513 E36.00783
G1 X155.077 Y183.977 E36.03785
G1 X154.264 Y184.371 E36.0679
G1 X153.42 Y184.691 E36.09792
G1 X152.55 Y184.936 E36.12798
G1 X151.663 Y185.102 E36.15799
G1 X150.512 Y185.2 E36.19642
G1 X149.905 Y185.213 E36.21661
G1 X145.799 Y185.212 E36.35317
G1 X144.313 Y185.191 E36.4026
G1 X142.901 Y185.181 E36.44957
G1 X92.044 Y185.181 E38.14108
G1 X89.452 Y185.213 E38.2273
G1 X85.34 Y185.212 E38.36406
G1 X84.642 Y185.203 E38.38728
G1 X83.741 Y185.152 E38.4173
G1 X82.847 Y185.02 E38.44735
G1 X81.969 Y184.811 E38.47737
G1 X81.112 Y184.524 E38.50743
G1 X80.285 Y184.163 E38.53744
G1 X79.492 Y183.73 E38.56749
G1 X78.741 Y183.229 E38.59752
G1 X78.037 Y182.663 E38.62756
G1 X77.386 Y182.037 E38.6576
G1 X76.793 Y181.356 E38.68764
G1 X76.263 Y180.625 E38.71767
G1 X75.799 Y179.85 E38.74771
G1 X75.405 Y179.037 E38.77776
G1 X75.085 Y178.193 E38.80778
G1 X74.841 Y177.323 E38.83783
G1 X74.675 Y176.435 E38.86788
G1 X74.578 Y175.28 E38.90643
G1 X74.565 Y174.671 E38.92669
G1 X74.566 Y60.542 E42.72264
G1 F2700 E37.72264
;MESH:Norns_Staender_01_ineins.stl
G0 F6000 X89.365 Y112.361
G0 X89.669 Y170.574
;TYPE:WALL-INNER
G1 F2700 E42.72264
G1 F1200 X89.487 Y170.514 E42.72901
G1 X89.343 Y170.409 E42.73494
G1 X89.165 Y170.109 E42.74654
G1 X89.165 Y112.761 E44.65394
G1 X89.197 Y112.566 E44.66052
G1 X89.284 Y112.4 E44.66675
G1 X89.554 Y112.198 E44.67796
G1 X89.712 Y112.163 E44.68335
G1 X145.235 Y112.161 E46.53005
G1 X145.446 Y112.199 E46.53718
G1 X145.716 Y112.4 E46.54838
G1 X145.803 Y112.566 E46.55461
G1 X145.835 Y112.761 E46.56118
G1 X145.835 Y170.109 E48.46858
G1 X145.657 Y170.409 E48.48019
G1 X145.513 Y170.514 E48.48611
G1 X145.313 Y170.58 E48.49312
G1 X89.669 Y170.574 E50.34385
G0 F6000 X89.593 Y170.085
;TYPE:WALL-OUTER
G1 F1200 X89.567 Y170.016 E50.3463
G1 X89.565 Y112.761 E52.25061
G1 X89.604 Y112.64 E52.25484
G1 X89.71 Y112.561 E52.25923
G1 X145.29 Y112.561 E54.10783
G1 X145.435 Y112.715 E54.11487
G1 X145.433 Y170.068 E56.02243
G1 X145.267 Y170.179 E56.02908
G1 X89.733 Y170.179 E57.87614
G1 X89.593 Y170.085 E57.88175
G1 F2700 E52.88175
G0 F6000 X89.265 Y170.085
G0 X89.642 Y170.753
G0 X89.619 Y174.212
G0 X89.649 Y174.412
;TYPE:WALL-INNER
G1 F2700 E57.88175
G1 F1200 X89.674 Y174.382 E57.88305
G1 X145.331 Y174.388 E59.73421
G1 X145.351 Y174.413 E59.73528
G1 X149.635 Y174.413 E59.87776
G1 X149.635 Y60.62 E63.66253
G1 X145.835 Y60.62 E63.78892
G1 X145.835 Y107.835 E65.3593
G1 X145.716 Y108.121 E65.3696
G1 X145.446 Y108.323 E65.38082
G1 X145.235 Y108.361 E65.38795
G1 X89.712 Y108.359 E67.23465
G1 X89.554 Y108.324 E67.24003
G1 X89.284 Y108.121 E67.25127
G1 X89.165 Y107.835 E67.26157
G1 X89.165 Y60.62 E68.83195
G1 X85.365 Y60.62 E68.95834
G1 X85.365 Y174.413 E72.74311
G1 X89.649 Y174.412 E72.88559
G0 F6000 X89.708 Y174.812
;TYPE:WALL-OUTER
G1 F1200 X89.733 Y174.783 E72.88687
G1 X145.267 Y174.783 E74.73394
G1 X145.292 Y174.813 E74.73524
G1 X150.035 Y174.813 E74.89299
G1 X150.035 Y60.22 E78.70437
G1 X145.435 Y60.22 E78.85736
G1 X145.433 Y107.796 E80.43975
G1 X145.396 Y107.881 E80.44283
G1 X145.29 Y107.961 E80.44725
G1 X89.71 Y107.961 E82.29585
G1 X89.604 Y107.881 E82.30026
G1 X89.567 Y107.796 E82.30335
G1 X89.565 Y60.22 E83.88573
G1 X84.965 Y60.22 E84.03873
G1 X84.965 Y174.813 E87.85011
G1 X89.708 Y174.812 E88.00786
G0 F6000 X89.588 Y174.052
;TYPE:SKIN
G1 F1200 X89.623 Y174.031 E88.00922
G1 X145.374 Y174.026 E89.8635
G1 X145.421 Y174.053 E89.8653
G1 X149.275 Y174.053 E89.99349
G1 X149.275 Y60.98 E93.75431
G1 X146.195 Y60.98 E93.85675
G1 X146.193 Y107.888 E95.41692
G1 X146.03 Y108.293 E95.43144
G1 X145.811 Y108.53 E95.44217
G1 X145.54 Y108.671 E95.45233
G1 X145.267 Y108.719 E95.46155
G1 X89.676 Y108.718 E97.31052
G1 X89.426 Y108.66 E97.31905
G1 X89.212 Y108.545 E97.32713
G1 X88.985 Y108.331 E97.33751
G1 X88.807 Y107.885 E97.35348
G1 X88.805 Y60.98 E98.91355
G1 X85.725 Y60.98 E99.01599
G1 X85.726 Y174.052 E102.77678
G1 X89.588 Y174.052 E102.90523
G1 F2700 E97.90523
G0 F6000 X88.895 Y174.313
G0 X89.619 Y174.212
G0 X89.728 Y170.76
G0 X89.634 Y170.937
G1 F2700 E102.90523
G1 F1200 X89.317 Y170.834 E102.91632
G1 X89.09 Y170.666 E102.92571
G1 X88.931 Y170.457 E102.93444
G1 X88.807 Y170.157 E102.94524
G1 X88.805 Y112.763 E104.85417
G1 X88.853 Y112.444 E104.8649
G1 X89.015 Y112.16 E104.87578
G1 X89.187 Y111.993 E104.88375
G1 X89.426 Y111.862 E104.89281
G1 X89.681 Y111.803 E104.90152
G1 X145.267 Y111.803 E106.75032
G1 X145.54 Y111.851 E106.75954
G1 X145.813 Y111.993 E106.76977
G1 X145.985 Y112.16 E106.77775
G1 X146.147 Y112.445 E106.78865
G1 X146.193 Y112.729 E106.79822
G1 X146.194 Y170.005 E108.70323
G1 X146.166 Y170.217 E108.71034
G1 X146.069 Y170.456 E108.71892
G1 X145.91 Y170.666 E108.72768
G1 X145.68 Y170.836 E108.73719
G1 X145.369 Y170.936 E108.74806
G1 X89.634 Y170.937 E110.60181
G1 F2700 E105.60181
G0 F6000 X89.667 Y170.674
G0 X89.216 Y170.538
G0 X88.533 Y174.213
G0 X86.17 Y173.851
G1 F2700 E110.60181
G1 F1200 X85.924 Y173.606 E110.61336
G0 F6000 X85.924 Y173.04
G1 F1200 X86.735 Y173.851 E110.6515
G0 F6000 X87.301 Y173.851
G1 F1200 X85.924 Y172.474 E110.71627
G0 F6000 X85.924 Y171.908
G1 F1200 X87.867 Y173.851 E110.80767
G0 F6000 X88.432 Y173.851
G1 F1200 X85.924 Y171.343 E110.92564
G0 F6000 X85.924 Y170.777
G1 F1200 X88.998 Y173.851 E111.07023
G0 F6000 X89.562 Y173.849
G1 F1200 X85.924 Y170.211 E111.24135
G0 F6000 X85.924 Y169.646
G1 F1200 X90.11 Y173.832 E111.43824
G0 F6000 X90.676 Y173.832
G1 F1200 X85.924 Y169.08 E111.66176
G0 F6000 X85.924 Y168.514
G1 F1200 X91.242 Y173.832 E111.91191
G0 F6000 X91.807 Y173.832
G1 F1200 X85.924 Y167.949 E112.18862
G0 F6000 X85.924 Y167.383
G1 F1200 X88.61 Y170.069 E112.31497
G0 F6000 X88.61 Y169.503
G1 F1200 X85.924 Y166.817 E112.44131
G0 F6000 X85.924 Y166.252
